flaticon/game/axe.svg

<svg xmlns="http://www.w3.org/2000/svg" width="32" height="32" viewBox="0 0 24 24">
    <path d="M 23.980469 7.570312 C 23.90625 7.164062 23.636719 6.816406 23.257812 6.644531 C 23.226562 6.628906 23.195312 6.621094 23.160156 6.613281 L 19.089844 5.9375 L 21.070312 3.953125 C 21.371094 3.652344 21.539062 3.253906 21.539062 2.824219 C 21.539062 2.398438 21.371094 2 21.070312 1.699219 C 20.769531 1.398438 20.371094 1.230469 19.945312 1.230469 C 19.515625 1.230469 19.117188 1.398438 18.816406 1.699219 L 16.113281 4.402344 L 14.964844 2.003906 C 14.957031 1.992188 14.949219 1.976562 14.941406 1.964844 C 14.753906 1.671875 14.449219 1.480469 14.105469 1.445312 C 13.761719 1.40625 13.425781 1.527344 13.179688 1.769531 L 9.714844 5.238281 C 9.46875 5.480469 9.351562 5.820312 9.386719 6.164062 C 9.425781 6.507812 9.617188 6.8125 9.90625 6.996094 C 9.929688 7.011719 9.953125 7.023438 9.976562 7.03125 L 12.5 8.011719 L 0.46875 20.046875 C 0.164062 20.347656 0 20.746094 0 21.175781 C 0 21.601562 0.164062 22 0.46875 22.300781 C 0.769531 22.601562 1.167969 22.769531 1.59375 22.769531 C 2.023438 22.769531 2.421875 22.601562 2.722656 22.300781 L 14.359375 10.664062 L 14.363281 15.277344 C 14.363281 15.304688 14.367188 15.328125 14.371094 15.355469 C 14.460938 15.800781 14.757812 16.140625 15.167969 16.265625 C 15.277344 16.300781 15.390625 16.316406 15.503906 16.316406 C 15.820312 16.316406 16.132812 16.1875 16.367188 15.949219 L 23.628906 8.691406 C 23.921875 8.398438 24.054688 7.980469 23.980469 7.570312 Z M 10.308594 6.304688 C 10.210938 6.230469 10.1875 6.132812 10.179688 6.074219 C 10.175781 6.015625 10.179688 5.902344 10.277344 5.800781 L 13.746094 2.335938 C 13.84375 2.234375 13.960938 2.230469 14.019531 2.238281 C 14.117188 2.246094 14.199219 2.296875 14.257812 2.375 L 15.515625 5 L 13.117188 7.394531 Z M 2.160156 21.738281 C 1.859375 22.039062 1.332031 22.039062 1.03125 21.738281 C 0.878906 21.585938 0.796875 21.386719 0.796875 21.175781 C 0.796875 20.960938 0.878906 20.761719 1.03125 20.609375 L 19.378906 2.261719 C 19.53125 2.109375 19.730469 2.027344 19.945312 2.027344 C 20.15625 2.027344 20.355469 2.109375 20.507812 2.261719 C 20.660156 2.414062 20.742188 2.613281 20.742188 2.824219 C 20.742188 3.039062 20.660156 3.238281 20.507812 3.390625 Z M 23.066406 8.125 L 15.804688 15.386719 C 15.691406 15.5 15.535156 15.542969 15.398438 15.503906 C 15.316406 15.476562 15.207031 15.410156 15.164062 15.234375 L 15.160156 10.066406 C 15.160156 10.007812 15.144531 9.953125 15.121094 9.902344 L 18.398438 6.628906 L 22.96875 7.390625 C 23.089844 7.460938 23.171875 7.574219 23.195312 7.714844 C 23.222656 7.867188 23.175781 8.015625 23.066406 8.125 Z M 23.066406 8.125"/>
</svg>

<svg xmlns="http://www.w3.org/2000/svg" width="32" height="32" viewBox="0 0 24 24">
    <path d="M23.98 7.57a1.268 1.268 0 0 0-.722-.925.408.408 0 0 0-.098-.032l-4.07-.676 1.98-1.984c.301-.3.47-.7.47-1.129 0-.426-.169-.824-.47-1.125-.3-.3-.699-.469-1.125-.469-.43 0-.828.168-1.129.47l-2.703 2.702-1.148-2.398-.024-.04a1.128 1.128 0 0 0-.836-.519c-.343-.039-.68.082-.925.325L9.715 5.238a1.132 1.132 0 0 0 .191 1.758.296.296 0 0 0 .07.035l2.524.98L.469 20.048c-.305.3-.469.7-.469 1.129 0 .426.164.824.469 1.125.3.3.699.469 1.125.469.43 0 .828-.168 1.129-.47l11.636-11.636.004 4.613c0 .028.004.051.008.078.09.446.387.786.797.91.11.036.223.051.336.051.316 0 .629-.128.863-.367l7.262-7.258c.293-.293.426-.71.351-1.12zM10.31 6.305a.334.334 0 0 1-.032-.504l3.47-3.465a.32.32 0 0 1 .273-.098c.097.008.18.059.238.137L15.516 5l-2.399 2.395zM2.16 21.738c-.3.301-.828.301-1.129 0a.79.79 0 0 1-.234-.562c0-.215.082-.414.234-.567L19.38 2.262a.792.792 0 0 1 .566-.235c.211 0 .41.082.563.235a.79.79 0 0 1 .234.562.792.792 0 0 1-.234.567zM23.066 8.125l-7.261 7.262a.418.418 0 0 1-.407.117.35.35 0 0 1-.234-.27l-.004-5.168a.39.39 0 0 0-.039-.164l3.277-3.273 4.57.762c.122.07.204.183.227.324.028.152-.02.3-.129.41zm0 0"/>
</svg>
